packages/icons/raw/imported/TravelPlug.svg

<svg width="32" height="32" viewBox="0 0 32 32" fill="none" xmlns="http://www.w3.org/2000/svg">
<path d="M15.5 26C15.5 26.2761 15.7239 26.5 16 26.5C16.2761 26.5 16.5 26.2761 16.5 26H15.5ZM16.5 20.84C16.5 20.5639 16.2761 20.34 16 20.34C15.7239 20.34 15.5 20.5639 15.5 20.84H16.5ZM9.5 11.3533V10.8533H9V11.3533H9.5ZM22.5 11.3533H23V10.8533H22.5V11.3533ZM12.4375 6C12.4375 5.72386 12.2136 5.5 11.9375 5.5C11.6614 5.5 11.4375 5.72386 11.4375 6H12.4375ZM11.4375 11.3533C11.4375 11.6295 11.6614 11.8533 11.9375 11.8533C12.2136 11.8533 12.4375 11.6295 12.4375 11.3533H11.4375ZM20.5625 6C20.5625 5.72386 20.3386 5.5 20.0625 5.5C19.7864 5.5 19.5625 5.72386 19.5625 6H20.5625ZM19.5625 11.3533C19.5625 11.6295 19.7864 11.8533 20.0625 11.8533C20.3386 11.8533 20.5625 11.6295 20.5625 11.3533H19.5625ZM16.5 26V20.84H15.5V26H16.5ZM12.75 21.34H19.25V20.34H12.75V21.34ZM9 11.3533V17.6133H10V11.3533H9ZM22 11.3533V17.6133H23V11.3533H22ZM9.5 11.8533H22.5V10.8533H9.5V11.8533ZM11.4375 6V11.3533H12.4375V6H11.4375ZM19.5625 6V11.3533H20.5625V6H19.5625ZM9 17.6133C9 18.6029 9.39596 19.5511 10.0996 20.2498L10.8042 19.5401C10.2888 19.0285 10 18.3353 10 17.6133H9ZM10.0996 20.2498C10.8032 20.9482 11.7566 21.34 12.75 21.34V20.34C12.0195 20.34 11.3196 20.0519 10.8042 19.5401L10.0996 20.2498ZM22 17.6133C22 18.3353 21.7111 19.0285 21.1958 19.5401L21.9004 20.2498C22.604 19.5512 23 18.6029 23 17.6133H22ZM21.1958 19.5401C20.6804 20.0519 19.9805 20.34 19.25 20.34V21.34C20.2434 21.34 21.1968 20.9482 21.9004 20.2498L21.1958 19.5401Z" fill="black"/>
</svg>

<svg width="32" height="32" fill="none" xmlns="http://www.w3.org/2000/svg"><path d="M15.5 26a.5.5 0 0 0 1 0h-1Zm1-5.16a.5.5 0 0 0-1 0h1Zm-7-9.487v-.5H9v.5h.5Zm13 0h.5v-.5h-.5v.5ZM12.437 6a.5.5 0 0 0-1 0h1Zm-1 5.353a.5.5 0 1 0 1 0h-1ZM20.563 6a.5.5 0 0 0-1 0h1Zm-1 5.353a.5.5 0 1 0 1 0h-1ZM16.5 26v-5.16h-1V26h1Zm-3.75-4.66h6.5v-1h-6.5v1ZM9 11.353v6.26h1v-6.26H9Zm13 0v6.26h1v-6.26h-1Zm-12.5.5h13v-1h-13v1ZM11.438 6v5.353h1V6h-1Zm8.124 0v5.353h1V6h-1ZM9 17.613c0 .99.396 1.938 1.1 2.637l.704-.71A2.715 2.715 0 0 1 10 17.613H9Zm1.1 2.637a3.762 3.762 0 0 0 2.65 1.09v-1c-.73 0-1.43-.288-1.946-.8l-.704.71ZM22 17.613c0 .722-.289 1.416-.804 1.927l.704.71a3.715 3.715 0 0 0 1.1-2.637h-1Zm-.804 1.927c-.516.512-1.216.8-1.946.8v1c.993 0 1.947-.392 2.65-1.09l-.704-.71Z" fill="#000"/></svg>
